Adwaita++/status/16/network-vpn-error.svg

<svg height="16" width="16" xmlns="http://www.w3.org/2000/svg">
  <path d="m4.5 3c-2.48 0-4.5 2.02-4.5 4.5 0 2.49 2.02 4.5 4.5 4.5 1.91 0 3.6-1.2 4.24-3h2.26v-3h-2.26c-.64-1.79-2.33-2.99-4.24-3zm10.5 3v3h1v-3zm-10.5.01c.83 0 1.5.67 1.5 1.5 0 .82-.67 1.5-1.5 1.5-.82 0-1.5-.68-1.5-1.5 0-.83.68-1.5 1.5-1.5z" fill="#474747" opacity=".3"/>
  <path class="warning" d="m12 6v4l.25 2h1.5l.25-2v-4zm0 7v2h2v-2z" fill="#3584e4"/>
</svg>

<svg xmlns="http://www.w3.org/2000/svg" width="16" height="16" version="1.1">
 <path d="M 4.5,3 C 2.02,3 0,5.02 0,7.5 0,9.99 2.02,12 4.5,12 6.41,12 8.1,10.8 8.74,9 H 11 V 6 H 8.74 C 8.1,4.21 6.41,3.01 4.5,3 Z M 15,6 V 9 H 16 V 6 Z M 4.5,6.01 C 5.33,6.01 6,6.68 6,7.51 6,8.33 5.33,9.01 4.5,9.01 3.68,9.01 3,8.33 3,7.51 3,6.68 3.68,6.01 4.5,6.01 Z" style="opacity:0.3;fill:#474747"/>
 <path class="warning" d="M 12,6 V 10 L 12.25,12 H 13.75 L 14,10 V 6 Z M 12,13 V 15 H 14 V 13 Z" style="fill:#3584e4"/>
</svg>
